app/img/icon/list.svg

<svg xmlns="http://www.w3.org/2000/svg" height="24" fill="#fff" width="24"><path fill="none" d="M0 0h24v24H0z"/><path d="M4 10.5c-.83 0-1.5.67-1.5 1.5s.67 1.5 1.5 1.5 1.5-.67 1.5-1.5-.67-1.5-1.5-1.5zm0-6c-.83 0-1.5.67-1.5 1.5S3.17 7.5 4 7.5 5.5 6.83 5.5 6 4.83 4.5 4 4.5zm0 12c-.83 0-1.5.68-1.5 1.5s.68 1.5 1.5 1.5 1.5-.68 1.5-1.5-.67-1.5-1.5-1.5zM8 19h12c.55 0 1-.45 1-1s-.45-1-1-1H8c-.55 0-1 .45-1 1s.45 1 1 1zm0-6h12c.55 0 1-.45 1-1s-.45-1-1-1H8c-.55 0-1 .45-1 1s.45 1 1 1zM7 6c0 .55.45 1 1 1h12c.55 0 1-.45 1-1s-.45-1-1-1H8c-.55 0-1 .45-1 1z"/></svg>

<svg xmlns="http://www.w3.org/2000/svg" enable-background="new 0 0 24 24" height="24" fill="white" viewBox="0 0 24 24" width="24"><g><rect fill="none" height="24" width="24"/></g><g><g><g><path d="M4,10.5c-0.83,0-1.5,0.67-1.5,1.5s0.67,1.5,1.5,1.5s1.5-0.67,1.5-1.5S4.83,10.5,4,10.5z M4,4.5C3.17,4.5,2.5,5.17,2.5,6 S3.17,7.5,4,7.5S5.5,6.83,5.5,6S4.83,4.5,4,4.5z M4,16.5c-0.83,0-1.5,0.68-1.5,1.5s0.68,1.5,1.5,1.5s1.5-0.68,1.5-1.5 S4.83,16.5,4,16.5z M8,19h12c0.55,0,1-0.45,1-1l0,0c0-0.55-0.45-1-1-1H8c-0.55,0-1,0.45-1,1l0,0C7,18.55,7.45,19,8,19z M8,13h12 c0.55,0,1-0.45,1-1l0,0c0-0.55-0.45-1-1-1H8c-0.55,0-1,0.45-1,1l0,0C7,12.55,7.45,13,8,13z M7,6L7,6c0,0.55,0.45,1,1,1h12 c0.55,0,1-0.45,1-1l0,0c0-0.55-0.45-1-1-1H8C7.45,5,7,5.45,7,6z"/></g></g></g></svg>
